gama.ui.shared/icons_svg/dark/navigator/folder.plugin.svg

<svg height="24.75" viewBox="-678.689 -3557.245 24.75 24.75" width="24.75" xmlns="http://www.w3.org/2000/svg"><g fill="none"><path d="m-677.1142-3550.9246 10.08004-.48 2.4 3.36 9.12001.72v13.4401h-21.60005z" fill="#666566"/><path d="m-675.31416-3550.87c-.99414 0-1.8.8058-1.8 1.8v13.2c0 .994.80586 1.8 1.8 1.8h18.00006c.9941 0 1.8-.806 1.8-1.8v-9.6c0-.9942-.8059-1.8-1.8-1.8h-6.60004c-1.32546 0-2.40001-1.0746-2.40001-2.4 0-.663-.53725-1.2-1.2-1.2zm0-1.2h7.80001c1.32545 0 2.4 1.0744 2.4 2.4 0 .6626.53725 1.2 1.20001 1.2h6.60004c1.6568 0 3 1.343 3 3v9.6c0 1.6568-1.3432 3-3 3h-18.00006c-1.65684 0-3.00004-1.3432-3.00004-3v-13.2c0-1.657 1.3432-3 3.00004-3z" fill="#f8b941"/><path d="m-665.9706-3541.0844 3.5101.0044c.1694 0 .30065.131.30065.3005s-.13125.3005-.30065.3005h-3.5143v3.5145c0 .1695-.1313.3005-.3007.3005-.1693 0-.3006-.131-.3006-.3005v-3.5145l-3.5059-.0084c-.16935 0-.3006-.1312-.3006-.3006s.13125-.3006.3006-.3006h3.5144v-3.5059c-.00425-.1651.13124-.3005.2964-.2965.1651-.004.3006.1314.2964.2965v3.5145z" fill="#f8b941"/><path d="m-665.9706-3541.0844 3.5101.0044c.1694 0 .30065.131.30065.3005s-.13125.3005-.30065.3005h-3.5143v3.5145c0 .1695-.1313.3005-.3007.3005-.1693 0-.3006-.131-.3006-.3005v-3.5145l-3.5059-.0084c-.16935 0-.3006-.1312-.3006-.3006s.13125-.3006.3006-.3006h3.5144v-3.5059c-.00425-.1651.13124-.3005.2964-.2965.1651-.004.3006.1314.2964.2965v3.5145z" stroke="#f9b941" stroke-linejoin="round" stroke-width=".5"/></g></svg>

<?xml version="1.0" encoding="UTF-8" standalone="no"?>
<!DOCTYPE svg PUBLIC "-//W3C//DTD SVG 1.1//EN" "http://www.w3.org/Graphics/SVG/1.1/DTD/svg11.dtd">
<svg xmlns:xl="http://www.w3.org/1999/xlink" version="1.1" xmlns="http://www.w3.org/2000/svg" xmlns:dc="http://purl.org/dc/elements/1.1/" viewBox="-678.6892 -3557.245 24.750035 24.750025" width="24.750035" height="24.750025">
  <defs/>
  <g id="SOURCES" fill-opacity="1" stroke-dasharray="none" fill="none" stroke="none" stroke-opacity="1">
    <title>SOURCES</title>
    <g id="SOURCES_Dark">
      <title>Dark</title>
      <g id="Graphic_12648"/>
      <g id="Graphic_12647">
        <path d="M -677.1142 -3550.9246 L -667.03416 -3551.4046 L -664.63416 -3548.0446 L -655.51415 -3547.3246 L -655.51415 -3533.8845 L -677.1142 -3533.8845 Z" fill="#666566"/>
      </g>
      <g id="Graphic_12646">
        <path d="M -675.31416 -3550.87 C -676.3083 -3550.87 -677.11416 -3550.0642 -677.11416 -3549.07 L -677.11416 -3535.87 C -677.11416 -3534.876 -676.3083 -3534.07 -675.31416 -3534.07 L -657.3141 -3534.07 C -656.32 -3534.07 -655.5141 -3534.876 -655.5141 -3535.87 L -655.5141 -3545.47 C -655.5141 -3546.4642 -656.32 -3547.27 -657.3141 -3547.27 L -663.91414 -3547.27 C -665.2396 -3547.27 -666.31415 -3548.3446 -666.31415 -3549.67 C -666.31415 -3550.333 -666.8514 -3550.87 -667.51415 -3550.87 Z M -675.31416 -3552.07 L -667.51415 -3552.07 C -666.1887 -3552.07 -665.11415 -3550.9956 -665.11415 -3549.67 C -665.11415 -3549.0074 -664.5769 -3548.47 -663.91414 -3548.47 L -657.3141 -3548.47 C -655.6573 -3548.47 -654.3141 -3547.127 -654.3141 -3545.47 L -654.3141 -3535.87 C -654.3141 -3534.2132 -655.6573 -3532.87 -657.3141 -3532.87 L -675.31416 -3532.87 C -676.971 -3532.87 -678.3142 -3534.2132 -678.3142 -3535.87 L -678.3142 -3549.07 C -678.3142 -3550.727 -676.971 -3552.07 -675.31416 -3552.07 Z" fill="#f8b941"/>
      </g>
      <g id="Group_12644">
        <title>close</title>
        <g id="Graphic_12645">
          <path d="M -665.9706 -3541.0844 L -662.4605 -3541.08 C -662.2911 -3541.08 -662.15985 -3540.949 -662.15985 -3540.7795 C -662.15985 -3540.61 -662.2911 -3540.479 -662.4605 -3540.479 L -665.9748 -3540.479 L -665.9748 -3536.9645 C -665.9748 -3536.795 -666.1061 -3536.664 -666.2755 -3536.664 C -666.4448 -3536.664 -666.5761 -3536.795 -666.5761 -3536.9645 L -666.5761 -3540.479 L -670.082 -3540.4874 C -670.25135 -3540.4874 -670.3826 -3540.6186 -670.3826 -3540.788 C -670.3826 -3540.9574 -670.25135 -3541.0886 -670.082 -3541.0886 L -666.5676 -3541.0886 L -666.5676 -3544.5945 C -666.57185 -3544.7596 -666.43636 -3544.895 -666.2712 -3544.891 C -666.1061 -3544.895 -665.9706 -3544.7596 -665.9748 -3544.5945 L -665.9748 -3541.08 Z" fill="#f8b941"/>
          <path d="M -665.9706 -3541.0844 L -662.4605 -3541.08 C -662.2911 -3541.08 -662.15985 -3540.949 -662.15985 -3540.7795 C -662.15985 -3540.61 -662.2911 -3540.479 -662.4605 -3540.479 L -665.9748 -3540.479 L -665.9748 -3536.9645 C -665.9748 -3536.795 -666.1061 -3536.664 -666.2755 -3536.664 C -666.4448 -3536.664 -666.5761 -3536.795 -666.5761 -3536.9645 L -666.5761 -3540.479 L -670.082 -3540.4874 C -670.25135 -3540.4874 -670.3826 -3540.6186 -670.3826 -3540.788 C -670.3826 -3540.9574 -670.25135 -3541.0886 -670.082 -3541.0886 L -666.5676 -3541.0886 L -666.5676 -3544.5945 C -666.57185 -3544.7596 -666.43636 -3544.895 -666.2712 -3544.891 C -666.1061 -3544.895 -665.9706 -3544.7596 -665.9748 -3544.5945 L -665.9748 -3541.08 Z" stroke="#f9b941" stroke-linecap="butt" stroke-linejoin="round" stroke-width=".5"/>
        </g>
      </g>
    </g>
  </g>
</svg>
